_includes/logotype-small.svg

<svg xmlns="http://www.w3.org/2000/svg" viewBox="1365.5 3814.1 731.5 505.7" enable-background="new 1365.5 3814.1 731.5 505.7"><path d="M1487.2 3814.1c0 21.4 16.9 15.1 13.8 49.7-3.8 43.4-8.6 86.3-7.7 130 .3 12.9 10.7 57.2-8.3 57-27.3-.3-28.9-12.9-43.3-36.8-12.2 14.4-43.5 72.1-49.8 22.1-5.8-46.2-16-97.4-9-143.9 2.7-18.1-.7-37.6 3.4-55.5 3.5-15 23.2-7.7 17.6-2.1 6.1 60.6-3 123.9 9.1 183.7 12.4-9.3 16.2-40.1 37.1-32 16 6.2 7.4 15.7 17.9 32.5 1.2-10 2-20.1 2.4-30.1 4.7.1 5.5 3.5 2.4 10 6.8-10.3-5.3-193.1 13.4-183.6-.2-.7.1-1.1 1-1 .1 1.1-.2 1.4-.9 1.1-.1-.2.4-1.1.9-1.1 0 2.9-2.4 0 0 0zm-71.2 209.1c0-.5.5-.5.5-.9-.1 1.6-4.8 6.6-5.7 8.6.2.2 5.2-6.4 5.2-7.7zm60.7-167.9c-.3-.3-.5-.3-.5 0h.5zM1580.3 4160.1c13.8 13.8 29.3 132.4 12.1 150.2-26.9 27.8-24.6-108.2-24.6-115.3-33.7 2.4-58.2-12.5-58.5 27.1-.1 18.9 13.2 75.4-7.3 88-13.6 8.4-15.2-111.8-17.9-128.5 12.2-18.3 36.4-111.6 61.2-78.4 14.9 1.9 54.9 82.3 24.9 41.2-9 9 17 15.7 10.1 15.7 9.2 9.2-1.9 0 0 0zm-18.6-28.7c-6.7-6.7-11.2-22.8-21-25.3 1.5 1.3 20.8 25.3 21 25.3-.5-.5.5 0 0 0-2.2-2.1.5 0 0 0-6.7-6.7.5 0 0 0zm4.8 6.7c-5.1-5.1.9.1.9 2.4.1-1-.2-1.8-.9-2.4-1-1 .4 1 0 0-.8-.8.4 1 0 0zm-7.2 2.4c.5 0 .5.5.9.5-1.6-1.2-2.7-4-3.2-5.2l2.3 4.7c.5 0 0-1 0 0 .5 0 0-1 0 0zm2.4 3.3c-.5 0-.5-.5-.9-.5.9 0 2.5 2.9 2.5 2.9-.6-.7-1.1-1.5-1.6-2.4-.5 0 .5 1 0 0-.5 0 .5 1 0 0zm-6.7-12.4c-.5 0-.5-.5-.9-.5 0 0 4.8 4.4.9.5-.5 0 .5.5 0 0-.5 0 .5.5 0 0-.5 0 .5.5 0 0zm-37.8 43.5c15.9-2.1 31.8-2.9 47.8-2.4-8.1-14.5-16.6-28.9-25.3-43.1-8.9 14.6-16.4 29.7-22.5 45.5 2.4 0 1.8-4.6 2.3-5.1-3.2 5.8-3.3 6.7-.3 2.5 1-4.3.3-3.4-2 2.6 7.7 0 4.3-11.4 0 0 7.6 0 4.3-11.4 0 0zm55.5-13.8c-1.9 5.7 1.5 4.5 0 0-.5 1.4.5 1.4 0 0-.5 1.4.5 1.4 0 0-.5 1.4.5 1.4 0 0zm4.3 7.6zm-24.9-42.6zm17.2 29.7zm1.5 2.4s-.2-.1-.5 0h.5zm-5.8-9.1zm-11.9-21zM2072 3929.2c-18.4 2.9-37 .8-55.5 1.9-.2 17.8 1.8 41.6-1 58.7-1 5.9-1.3 57.1-9.1 57-8.6-13.3-20.4 13.5-15.2-20.8 5.6-36.8-1.4-72.9 1.2-109.2 2.1-29.4 17.9-47.2 36.2-72.6 22.4-31.2 35.1-.9 46 21.8 18.1 37.8 13.4 53.5 14.2 96.3.7 32.4 17.3 79.1-12.1 84.7-20.8-15.9-4.9-93.2-4.7-117.8-.8.1-2.1 1.6-.8 2.2 1.2-.4.8-.8.8-2.2-18 2.9 0 4.8 0 0-18 2.9 0 4.8 0 0zm-62.1 50.2c-.5 0-.5-.5-.9-.5 0-.1 3.4 1.6.9.5zm2.6-74.2c18.7 3.5 40.8-1.5 59.8-1.3-4.6-14.4-18.5-32.2-27.3-44.2-11.3 14.8-22.4 29.9-32.5 45.5.8 0 1.9-1.5 1.9-2.3-3.9 1.9 1.4-2.8-1.9 2.3 9.1 1.8 3.4-5.2 0 0 9 1.7 3.4-5.2 0 0zM1917.6 4098.9c18.2-18.2 29.3 9 42.3 23.6 24.1 27.3 16.2 66.2 16.3 102.1.1 22.3 12 83-9.4 89.1-19.5-2.8-10.9-117.6-8.6-131.5-18.9 0-59.2-12.1-58.5 14.9.4 13.6 4.8 53.5-1.7 62.7-6.9 9.9 4.8 27.9 1.4 39-12.4 39.6-24.6-34.5-24.9-40-3.7-64.4 1.5-120.6 41.9-161.1.8 1.5 1.3 1.6 1.7.2 0-.8-1.4-.5-1.7-.2.2-1 2.1 1.5 1.2 1.2 4-4.1-3.9-1.5 0 0zm37.7 58.8c-10-5.1-20.9-33.4-29.7-42.1-11.2 11.2-26.8 23.3-28.2 40.7 19.4 0 38.6 1.4 57.9 1.4.2.1-3.1.1-3.3.1 10.2-.8-4.6-.1 3.3-.1-1.8-.9-8.1 0 0 0zm-70.3-14.3c-1.5 0 0 5.6 0 0-.4 0 0 .4 0 0-.4 0 0 .4 0 0-.4 0 0 .4 0 0zm22 22h-.5.5zM1752.1 4308.9c-5.6-33.4-4.3-81.8-.3-115.7 3.8-31.7-9-72.3 10.3-98.2 31.8 5.4-8.5 61.7 29 63.7 35.7 1.9 39.3-13.1 35.1-53.8-2.4-7.7 19-22.1 18.1 8.7-1.7 54.9-6.6 113.8.7 168.3 1 7.1 4 28.2-7 31.2-18.3 5.1-12.4-36.7-12.7-47.2-.6-21.3-8.9-60.6 2.8-73.4-11.2-5.5-27.6-6.7-45-3.8 1.8.9 3.8 1.3 4.8 3.3-7.1-2-11.9.1-14.4 6.2-6.4 1.2 15.7 103.3-3.4 114.6-1.7 1-15.2-7.9-18.2-5 .7-.7-.5 20.1-1.3-8.2.3 1.5 1 8.7 1.5 9.3-3.3-19.7 2 1.9 0 0-3.3-19.7 2 1.9 0 0zm3.9-6.2zm3.3 1.4c0-.2-.2-.2-.5 0h.5zm73.2 4.8zM1944.7 3828.3c-4.3 12.4 9.2 9.8-4.6 26.7-10 12.3-38.4 38.9-39.6 55.2-1.3 16.6 46.1 128.6 36 133.8-35.1 18.3-41.3-79.1-49.2-98-28.6-68.9-18.6 96.9-30.4 96.9-26.3 0-8.4-134.9-5.4-160 .7-5.8-.5-59 13.2-59.2 25.1-.5 5.1 75.2 5 86.2 20-8.9 56.9-84.9 73.6-82.6l1.4 1c-.4 1.2-1.6-1.1-1.3-1 3.8 3-1.7-2 1.3 1-.5 1.4-2.9-2.9 0 0zM1629.3 4102.2c3.4-5.1 59.1-3.6 70.9-1.4 5.2.9 25.4 12.2 18.1 21.5-19.3 2.2-38.7-.1-57.9 2.9 3.5-.3 6.3.8 8.6 3.3-34.4 22.8-14 112.2-12.3 147.5 1.3 27.4 32.8 7 53 15.5 23.9 10-22.5 19.3-28.2 19.3 9.1 9.1-31.8 6.6-33.3 6.5-25.7-1.8-16.3-53-18.8-68.2-6.4-38.6 10.3-119 .2-143.7-1.8-8.6-.3 5.5-.3-3.2 1.9-2.8 0 8.6 0 0 1.9-2.8 0 8.6 0 0zM1404.3 4295.5c-2.8-30.6-1.8-61.7 2.4-92.8-20.5-23.4-41.6-36.2-39.2-67.7 1.5-19 13.6-58.6 20.8-24.8 2.8 13.2-2.3 25.7-2.3 38.9 11.4 0 32.1 32 37.3 40.2 16.3-24.9 21.8-34.8 24.3-60.8 1.4-14.7-9.4-31 13.7-31.4 27.4-.5 13.2 58.5 4.7 69.5-28.2 36.5-42.8 56.5-37.7 106 5.9 56.9-36.5 30.4-28 19.5 3.8 1.7 5.2 4.5 4.4 8.6 1.8-7-1.1-5.6-.4-5.2-.5-5.3 2.4 1.4 0 0-.5-5.4 2.4 1.4 0 0-.6-6.3 2.4 1.4 0 0zM2061 4232.3c-14 14 17.7 68-6.2 76.5-41.4 14.7-10.7-104.7-35.3-128.7-19.3-18.8-25.8-45.2-19.3-72.6 9.7-41.6 19.9 32.7 19.5 30.3 5.4 36.4 34.3 43.5 52.7 16.7 17.6-25.5-19.1-48.1 23.5-53.8 0 12 6.6 50-1.6 61.1-19.7 26.6-33.3 35.6-33.3 70.5-.5.5-.2-3.9-.1-3.7 1.2 11.7.1-8.4.1 3.7-4.3 4.4 0-9.1 0 0-3.2 3.2 0-9.1 0 0zm-24.4-59.8c.5 0 .5.5.9.5-1.6-.1-4.1-3.3-4.9-4.2 1.4 1.3 2.7 2.5 4 3.7.5 0-.4-.4 0 0 .5 0-.4-.4 0 0zm-32-15.7c.8.8 3 0 0 0zm53.6 102.3c-.3-.3-.5-.3-.5 0 .2.2.5.2.5 0zm29.6-104.3c0-.2-.2-.2-.5 0h.5zM1639.4 4043.7c-31.2 24.9-22.5-106.3-22.5-130.1-10.3-1.8-2-33.1-2.4-37.2-1.7-16.8-.5-33.4-.9-50-.4-14.9 22.3-7.8 24.3 4 3 17.4-3.8 43.3-5.6 59.6-4.6 43.2 1.3 92.2 10.2 134.5-1.1 8.7 63.1-8.9 56.7 12.5-5 16.7-53.8 7.6-56.8 7.6 7-.5 6.1-.7-3-.9-2.4 1.9 18.2 0 0 0-2.4 1.9 18.2 0 0 0-2.4 1.9 18.2 0 0 0zM1758.7 3999.3c-34.5 16.8 55.6 37.6 54.6 34.6 21.2 11-55.5 13.1-62.8 12.3-27.8-3.2-13.4-78.7-13-103.3.4-25.7-9.5-96.1 5.2-117.1 4.4-1.8 6.6-.1 6.7 5 4.3-2.1.7-6.7 6.8-6.6 15.8 32 2.9 126.7 2.5 175.1-1 .5 0-1.9 0 0-1 .5 0-1.9 0 0zm-4.8-127.8c.4.5 0 .5 0 0zM1552.4 3821.3c.7 1 27.9 23.4 13.9 23.4 8.7 19.6-3.2 56.4-2.8 77.4.2 13 11.1 131.3-2.1 128.7-31-6-22.6-229.5-9-229.5 1 1.4-.4 0 0 0 1 1.4-.4 0 0 0zm9.6 36.3c1.4-3.3 1.4-7.2.5-11 0 3.9 0 7.2-.5 11z"/></svg>

<?xml version="1.0" encoding="utf-8"?>
<!-- Generator: Adobe Illustrator 18.0.0, SVG Export Plug-In . SVG Version: 6.00 Build 0)  -->
<!DOCTYPE svg PUBLIC "-//W3C//DTD SVG 1.1//EN" "http://www.w3.org/Graphics/SVG/1.1/DTD/svg11.dtd">
<svg version="1.1" id="Layer_2_xA0_Image_1_" xmlns="http://www.w3.org/2000/svg" xmlns:xlink="http://www.w3.org/1999/xlink"
	 x="0px" y="0px" viewBox="1365.5 3814.1 731.5 505.7" enable-background="new 1365.5 3814.1 731.5 505.7" xml:space="preserve">
<g>
	<path d="M1487.2,3814.1c0,21.4,16.9,15.1,13.8,49.7c-3.8,43.4-8.6,86.3-7.7,130c0.3,12.9,10.7,57.2-8.3,57
		c-27.3-0.3-28.9-12.9-43.3-36.8c-12.2,14.4-43.5,72.1-49.8,22.1c-5.8-46.2-16-97.4-9-143.9c2.7-18.1-0.7-37.6,3.4-55.5
		c3.5-15,23.2-7.7,17.6-2.1c6.1,60.6-3,123.9,9.1,183.7c12.4-9.3,16.2-40.1,37.1-32c16,6.2,7.4,15.7,17.9,32.5
		c1.2-10,2-20.1,2.4-30.1c4.7,0.1,5.5,3.5,2.4,10c6.8-10.3-5.3-193.1,13.4-183.6C1486,3814.4,1486.3,3814,1487.2,3814.1
		c0.1,1.1-0.2,1.4-0.9,1.1C1486.2,3815,1486.7,3814.1,1487.2,3814.1C1487.2,3817,1484.8,3814.1,1487.2,3814.1z M1416,4023.2
		c0-0.5,0.5-0.5,0.5-0.9c-0.1,1.6-4.8,6.6-5.7,8.6C1411,4031.1,1416,4024.5,1416,4023.2z M1476.7,3855.3c-0.3-0.3-0.5-0.3-0.5,0
		C1476.4,3855.3,1476.5,3855.3,1476.7,3855.3z"/>
	<path d="M1580.3,4160.1c13.8,13.8,29.3,132.4,12.1,150.2c-26.9,27.8-24.6-108.2-24.6-115.3c-33.7,2.4-58.2-12.5-58.5,27.1
		c-0.1,18.9,13.2,75.4-7.3,88c-13.6,8.4-15.2-111.8-17.9-128.5c12.2-18.3,36.4-111.6,61.2-78.4c14.9,1.9,54.9,82.3,24.9,41.2
		C1561.2,4153.4,1587.2,4160.1,1580.3,4160.1C1589.5,4169.3,1578.4,4160.1,1580.3,4160.1z M1561.7,4131.4
		c-6.7-6.7-11.2-22.8-21-25.3C1542.2,4107.4,1561.5,4131.4,1561.7,4131.4C1561.2,4130.9,1562.2,4131.4,1561.7,4131.4
		C1559.5,4129.3,1562.2,4131.4,1561.7,4131.4C1555,4124.7,1562.2,4131.4,1561.7,4131.4z M1566.5,4138.1c-5.1-5.1,0.9,0.1,0.9,2.4
		C1567.5,4139.5,1567.2,4138.7,1566.5,4138.1C1565.5,4137.1,1566.9,4139.1,1566.5,4138.1C1565.7,4137.3,1566.9,4139.1,1566.5,4138.1
		z M1559.3,4140.5c0.5,0,0.5,0.5,0.9,0.5c-1.6-1.2-2.7-4-3.2-5.2C1557.8,4137.4,1558.5,4138.9,1559.3,4140.5
		C1559.8,4140.5,1559.3,4139.5,1559.3,4140.5C1559.8,4140.5,1559.3,4139.5,1559.3,4140.5z M1561.7,4143.8c-0.5,0-0.5-0.5-0.9-0.5
		c0.9,0,2.5,2.9,2.5,2.9C1562.7,4145.5,1562.2,4144.7,1561.7,4143.8C1561.2,4143.8,1562.2,4144.8,1561.7,4143.8
		C1561.2,4143.8,1562.2,4144.8,1561.7,4143.8z M1555,4131.4c-0.5,0-0.5-0.5-0.9-0.5C1554.1,4130.9,1558.9,4135.3,1555,4131.4
		C1554.5,4131.4,1555.5,4131.9,1555,4131.4C1554.5,4131.4,1555.5,4131.9,1555,4131.4C1554.5,4131.4,1555.5,4131.9,1555,4131.4z
		 M1517.2,4174.9c15.9-2.1,31.8-2.9,47.8-2.4c-8.1-14.5-16.6-28.9-25.3-43.1C1530.8,4144,1523.3,4159.1,1517.2,4174.9
		c2.4,0,1.8-4.6,2.3-5.1c-3.2,5.8-3.3,6.7-0.3,2.5C1520.2,4168,1519.5,4168.9,1517.2,4174.9
		C1524.9,4174.9,1521.5,4163.5,1517.2,4174.9C1524.8,4174.9,1521.5,4163.5,1517.2,4174.9z M1572.7,4161.1
		C1570.8,4166.8,1574.2,4165.6,1572.7,4161.1C1572.2,4162.5,1573.2,4162.5,1572.7,4161.1C1572.2,4162.5,1573.2,4162.5,1572.7,4161.1
		C1572.2,4162.5,1573.2,4162.5,1572.7,4161.1z M1577,4168.7C1577,4167.9,1577,4159.8,1577,4168.7
		C1577,4168.7,1577,4167.3,1577,4168.7z M1552.1,4126.1C1552.1,4126.1,1552.1,4125.7,1552.1,4126.1L1552.1,4126.1L1552.1,4126.1z
		 M1569.3,4155.8C1569.3,4155.8,1568.9,4155.8,1569.3,4155.8L1569.3,4155.8L1569.3,4155.8z M1570.8,4158.2c0,0-0.2-0.1-0.5,0
		C1570.4,4158.2,1570.6,4158.2,1570.8,4158.2z M1565,4149.1C1565,4149.1,1565,4148.6,1565,4149.1L1565,4149.1z M1553.1,4128.1
		L1553.1,4128.1C1553.1,4128.5,1553.1,4128.5,1553.1,4128.1C1553.6,4128.1,1553.1,4128.1,1553.1,4128.1z"/>
	<path d="M2072,3929.2c-18.4,2.9-37,0.8-55.5,1.9c-0.2,17.8,1.8,41.6-1,58.7c-1,5.9-1.3,57.1-9.1,57c-8.6-13.3-20.4,13.5-15.2-20.8
		c5.6-36.8-1.4-72.9,1.2-109.2c2.1-29.4,17.9-47.2,36.2-72.6c22.4-31.2,35.1-0.9,46,21.8c18.1,37.8,13.4,53.5,14.2,96.3
		c0.7,32.4,17.3,79.1-12.1,84.7C2055.9,4031.1,2071.8,3953.8,2072,3929.2c-0.8,0.1-2.1,1.6-0.8,2.2
		C2072.4,3931,2072,3930.6,2072,3929.2C2054,3932.1,2072,3934,2072,3929.2C2054,3932.1,2072,3934,2072,3929.2z M2009.9,3979.4
		c-0.5,0-0.5-0.5-0.9-0.5C2009,3978.8,2012.4,3980.5,2009.9,3979.4z M2012.5,3905.2c18.7,3.5,40.8-1.5,59.8-1.3
		c-4.6-14.4-18.5-32.2-27.3-44.2C2033.7,3874.5,2022.6,3889.6,2012.5,3905.2c0.8,0,1.9-1.5,1.9-2.3
		C2010.5,3904.8,2015.8,3900.1,2012.5,3905.2C2021.6,3907,2015.9,3900,2012.5,3905.2C2021.5,3906.9,2015.9,3900,2012.5,3905.2z"/>
	<path d="M1917.6,4098.9c18.2-18.2,29.3,9,42.3,23.6c24.1,27.3,16.2,66.2,16.3,102.1c0.1,22.3,12,83-9.4,89.1
		c-19.5-2.8-10.9-117.6-8.6-131.5c-18.9,0-59.2-12.1-58.5,14.9c0.4,13.6,4.8,53.5-1.7,62.7c-6.9,9.9,4.8,27.9,1.4,39
		c-12.4,39.6-24.6-34.5-24.9-40c-3.7-64.4,1.5-120.6,41.9-161.1c0.8,1.5,1.3,1.6,1.7,0.2c0-0.8-1.4-0.5-1.7-0.2
		C1916.6,4096.7,1918.5,4099.2,1917.6,4098.9C1921.6,4094.8,1913.7,4097.4,1917.6,4098.9z M1955.3,4157.7
		c-10-5.1-20.9-33.4-29.7-42.1c-11.2,11.2-26.8,23.3-28.2,40.7C1916.8,4156.3,1936,4157.7,1955.3,4157.7c0.2,0.1-3.1,0.1-3.3,0.1
		C1962.2,4157,1947.4,4157.7,1955.3,4157.7C1953.5,4156.8,1947.2,4157.7,1955.3,4157.7z M1885,4143.4
		C1883.5,4143.4,1885,4149,1885,4143.4C1884.6,4143.4,1885,4143.8,1885,4143.4C1884.6,4143.4,1885,4143.8,1885,4143.4
		C1884.6,4143.4,1885,4143.8,1885,4143.4z M1907,4165.4c-0.2,0-0.3,0-0.5,0C1906.7,4165.4,1906.9,4165.4,1907,4165.4z"/>
	<path d="M1752.1,4308.9c-5.6-33.4-4.3-81.8-0.3-115.7c3.8-31.7-9-72.3,10.3-98.2c31.8,5.4-8.5,61.7,29,63.7
		c35.7,1.9,39.3-13.1,35.1-53.8c-2.4-7.7,19-22.1,18.1,8.7c-1.7,54.9-6.6,113.8,0.7,168.3c1,7.1,4,28.2-7,31.2
		c-18.3,5.1-12.4-36.7-12.7-47.2c-0.6-21.3-8.9-60.6,2.8-73.4c-11.2-5.5-27.6-6.7-45-3.8c1.8,0.9,3.8,1.3,4.8,3.3
		c-7.1-2-11.9,0.1-14.4,6.2c-6.4,1.2,15.7,103.3-3.4,114.6c-1.7,1-15.2-7.9-18.2-5c0.7-0.7-0.5,20.1-1.3-8.2
		C1750.9,4301.1,1751.6,4308.3,1752.1,4308.9C1748.8,4289.2,1754.1,4310.8,1752.1,4308.9C1748.8,4289.2,1754.1,4310.8,1752.1,4308.9
		z M1756,4302.7L1756,4302.7C1755.5,4302.7,1756,4302.7,1756,4302.7z M1759.3,4304.1c0-0.2-0.2-0.2-0.5,0
		C1759,4304.1,1759.2,4304.1,1759.3,4304.1z M1832.5,4308.9L1832.5,4308.9L1832.5,4308.9L1832.5,4308.9z"/>
	<path d="M1944.7,3828.3c-4.3,12.4,9.2,9.8-4.6,26.7c-10,12.3-38.4,38.9-39.6,55.2c-1.3,16.6,46.1,128.6,36,133.8
		c-35.1,18.3-41.3-79.1-49.2-98c-28.6-68.9-18.6,96.9-30.4,96.9c-26.3,0-8.4-134.9-5.4-160c0.7-5.8-0.5-59,13.2-59.2
		c25.1-0.5,5.1,75.2,5,86.2c20-8.9,56.9-84.9,73.6-82.6C1943.8,3827.6,1944.2,3828,1944.7,3828.3c-0.4,1.2-1.6-1.1-1.3-1
		C1947.2,3830.3,1941.7,3825.3,1944.7,3828.3C1944.2,3829.7,1941.8,3825.4,1944.7,3828.3z"/>
	<path d="M1629.3,4102.2c3.4-5.1,59.1-3.6,70.9-1.4c5.2,0.9,25.4,12.2,18.1,21.5c-19.3,2.2-38.7-0.1-57.9,2.9
		c3.5-0.3,6.3,0.8,8.6,3.3c-34.4,22.8-14,112.2-12.3,147.5c1.3,27.4,32.8,7,53,15.5c23.9,10-22.5,19.3-28.2,19.3
		c9.1,9.1-31.8,6.6-33.3,6.5c-25.7-1.8-16.3-53-18.8-68.2c-6.4-38.6,10.3-119,0.2-143.7C1627.8,4096.8,1629.3,4110.9,1629.3,4102.2
		C1631.2,4099.4,1629.3,4110.8,1629.3,4102.2C1631.2,4099.4,1629.3,4110.8,1629.3,4102.2z"/>
	<path d="M1404.3,4295.5c-2.8-30.6-1.8-61.7,2.4-92.8c-20.5-23.4-41.6-36.2-39.2-67.7c1.5-19,13.6-58.6,20.8-24.8
		c2.8,13.2-2.3,25.7-2.3,38.9c11.4,0,32.1,32,37.3,40.2c16.3-24.9,21.8-34.8,24.3-60.8c1.4-14.7-9.4-31,13.7-31.4
		c27.4-0.5,13.2,58.5,4.7,69.5c-28.2,36.5-42.8,56.5-37.7,106c5.9,56.9-36.5,30.4-28,19.5c3.8,1.7,5.2,4.5,4.4,8.6
		C1406.5,4293.7,1403.6,4295.1,1404.3,4295.5C1403.8,4290.2,1406.7,4296.9,1404.3,4295.5C1403.8,4290.1,1406.7,4296.9,1404.3,4295.5
		C1403.7,4289.2,1406.7,4296.9,1404.3,4295.5z"/>
	<path d="M2061,4232.3c-14,14,17.7,68-6.2,76.5c-41.4,14.7-10.7-104.7-35.3-128.7c-19.3-18.8-25.8-45.2-19.3-72.6
		c9.7-41.6,19.9,32.7,19.5,30.3c5.4,36.4,34.3,43.5,52.7,16.7c17.6-25.5-19.1-48.1,23.5-53.8c0,12,6.6,50-1.6,61.1
		C2074.6,4188.4,2061,4197.4,2061,4232.3c-0.5,0.5-0.2-3.9-0.1-3.7C2062.1,4240.3,2061,4220.2,2061,4232.3
		C2056.7,4236.7,2061,4223.2,2061,4232.3C2057.8,4235.5,2061,4223.2,2061,4232.3z M2036.6,4172.5c0.5,0,0.5,0.5,0.9,0.5
		c-1.6-0.1-4.1-3.3-4.9-4.2C2034,4170.1,2035.3,4171.3,2036.6,4172.5C2037.1,4172.5,2036.2,4172.1,2036.6,4172.5
		C2037.1,4172.5,2036.2,4172.1,2036.6,4172.5z M2004.6,4156.8C2004.6,4156.8,2004.6,4157.2,2004.6,4156.8
		C2005.4,4157.6,2007.6,4156.8,2004.6,4156.8z M2058.2,4259.1c-0.3-0.3-0.5-0.3-0.5,0C2057.9,4259.3,2058.2,4259.3,2058.2,4259.1z
		 M2087.8,4154.8c0-0.2-0.2-0.2-0.5,0C2087.5,4154.8,2087.7,4154.8,2087.8,4154.8z"/>
	<path d="M1639.4,4043.7c-31.2,24.9-22.5-106.3-22.5-130.1c-10.3-1.8-2-33.1-2.4-37.2c-1.7-16.8-0.5-33.4-0.9-50
		c-0.4-14.9,22.3-7.8,24.3,4c3,17.4-3.8,43.3-5.6,59.6c-4.6,43.2,1.3,92.2,10.2,134.5c-1.1,8.7,63.1-8.9,56.7,12.5
		c-5,16.7-53.8,7.6-56.8,7.6C1649.4,4044.1,1648.5,4043.9,1639.4,4043.7C1637,4045.6,1657.6,4043.7,1639.4,4043.7
		C1637,4045.6,1657.6,4043.7,1639.4,4043.7C1637,4045.6,1657.6,4043.7,1639.4,4043.7z"/>
	<path d="M1758.7,3999.3c-34.5,16.8,55.6,37.6,54.6,34.6c21.2,11-55.5,13.1-62.8,12.3c-27.8-3.2-13.4-78.7-13-103.3
		c0.4-25.7-9.5-96.1,5.2-117.1c4.4-1.8,6.6-0.1,6.7,5c4.3-2.1,0.7-6.7,6.8-6.6C1772,3856.2,1759.1,3950.9,1758.7,3999.3
		C1757.7,3999.8,1758.7,3997.4,1758.7,3999.3C1757.7,3999.8,1758.7,3997.4,1758.7,3999.3z M1753.9,3871.5
		C1754.3,3872,1753.9,3872,1753.9,3871.5C1753.9,3871.5,1753.9,3872,1753.9,3871.5z"/>
	<path d="M1552.4,3821.3c0.7,1,27.9,23.4,13.9,23.4c8.7,19.6-3.2,56.4-2.8,77.4c0.2,13,11.1,131.3-2.1,128.7
		C1530.4,4044.8,1538.8,3821.3,1552.4,3821.3C1553.4,3822.7,1552,3821.3,1552.4,3821.3C1553.4,3822.7,1552,3821.3,1552.4,3821.3z
		 M1562,3857.6c1.4-3.3,1.4-7.2,0.5-11C1562.5,3850.5,1562.5,3853.8,1562,3857.6z"/>
</g>
</svg>
